X:70
M:4/4
L:1/8
K:A
ceec e2 c2 | BcBA F2EF | A2AB c2ec | B/c/B A2 A2 :| 
z2 |: e2 ec e2 cB | ABcB ABce | f2fa f2af | e2ec B/c/B AB | 
ceec e2 c2 | BcBA F2EF | A2AB c2ec | B/c/B A2 A4 :|| 

